X: 383
T: Pasarelska
O: Macedonia
M: 7/8
L: 1/8
Q: 1/4=132
K: G 
%%MIDI drum d2zd3z 41 41
%%MIDI drumon
|:F2D E2B,2|D3 DED2 |F2D E2B,2|D3 D4 |\
  D3 D4  |D2C D2C2|
B,3 B,CD2|E2F DCDC|B,3 B,4  | B,3 B,4|B,3 B,4  :|



